X: 1
T: Polska ur J E Schedin och A G Ahlins notbok, nr 49
O: Västmanland
B: http://www.smus.se/earkiv/fmk/browselarge.php?lang=sw&katalogid=Vs+2&bildnr=00023
R: Polska
Z: Nils L
M: 3/4
L: 1/8
K: G
G2 BG/B/ d"^?"B/d/ | gg/a/ gf/e/ de/f/ | gg/a/ gf/e/ de/f/ | g2 Bcde | ed/^c/ d2z2 ::
g2 d4 | e>dd>c c>B | g2 d4 | e>dd>c c>B | ddccBB | B/A/G/F/ G2 z2 :|

